src/img/svg/icon-money.svg

<svg width="37" height="28" viewBox="0 0 37 28" fill="none" xmlns="http://www.w3.org/2000/svg">
<path d="M27.25 21.1007H31V17.3318M27.25 6.02516H31V9.79404M9.75 6.02516H6V9.79404M6 17.3318V21.1007H9.75M18.5 18.5881C15.7386 18.5881 13.5 16.3382 13.5 13.5629C13.5 10.7876 15.7386 8.53775 18.5 8.53775C21.2614 8.53775 23.5 10.7876 23.5 13.5629C23.5 16.3382 21.2614 18.5881 18.5 18.5881ZM3.5 1H33.5C34.8807 1 36 2.12492 36 3.51258V23.6132C36 25.0009 34.8807 26.1258 33.5 26.1258H3.5C2.11929 26.1258 1 25.0009 1 23.6132V3.51258C1 2.12492 2.11929 1 3.5 1Z" stroke="#0085FF" stroke-width="2"/>
</svg>

<svg xmlns="http://www.w3.org/2000/svg" width="37" height="28" fill="none"><path stroke="#0085FF" stroke-width="2" d="M27.25 21.1H31v-3.768M27.25 6.025H31v3.769M9.75 6.025H6v3.769m0 7.538V21.1h3.75m8.75-2.513c-2.761 0-5-2.25-5-5.025 0-2.775 2.239-5.025 5-5.025s5 2.25 5 5.025c0 2.775-2.239 5.025-5 5.025zM3.5 1h30C34.88 1 36 2.125 36 3.513v20.1a2.506 2.506 0 01-2.5 2.513h-30C2.12 26.126 1 25 1 23.613v-20.1A2.506 2.506 0 013.5 1z"/></svg>
